client/public/game_modes/bouncing_ball/frame4.svg

<svg xmlns="http://www.w3.org/2000/svg" width="437" height="483" fill="none"><path fill="#EDEDED" d="M239 60h20v20h-20V60Zm0 20h20v20h-20V80Zm20 20h20v20h-20v-20Zm0-20h20v20h-20V80Zm20 20h20v20h-20v-20Zm0 20h20v20h-20v-20Zm-20 0h20v20h-20v-20Zm-20-20h20v20h-20v-20Zm-20-20h20v20h-20V80Zm0-20h20v20h-20V60Z"/><path stroke="#EDEDED" stroke-width="5" d="M239 60h20v20m-20-20v20m0-20h-20v20m40 0h-20m20 0v20m0-20h20v20m-40-20v20m0-20h-20m40 20h-20m20 0h20m-20 0v20m-20-20v20h20m-20-20h-20V80m60 20v20m0-20h20v20m-20 0h-20m20 0h20m-20 0v20m-20-20v20h20m20-20v20h-20"/><path fill="#949494" d="M119 80h20v20h-20V80Zm-20 20h20v20H99v-20Zm0 60h20v20H99v-20Zm0 20h20v20H99v-20Zm0 20h20v20H99v-20Zm100 60h20v20h-20v-20Zm60 0h20v20h-20v-20Zm-20 0h20v20h-20v-20Zm-20 0h20v20h-20v-20Zm-40-20h20v20h-20v-20Zm0 20h20v20h-20v-20Zm-20-20h20v20h-20v-20Zm0 20h20v20h-20v-20Zm-20-40h20v20h-20v-20Zm0 20h20v20h-20v-20Zm-20-40h20v20h-20v-20Zm0 20h20v20h-20v-20Zm0-40h20v20h-20v-20Zm-20-40h20v20H99v-20Zm0-20h20v20H99v-20Z"/><path stroke="#949494" stroke-width="5" d="M119 100h20V80h-20v20Zm0 0H99v20m20-20v20m0 0H99m20 0v20m-20-20v20m0 20h20m-20 0v20m0-20v-20m20 20v20m0-20v-20m0 40H99m20 0v20m0-20h20v20m-40-20v20m20 0H99m20 0v20m0-20h20m-40 0v20h20m0 0h20m-20 0v20h20m60 20h20m-20 0v20m0-20v-20h-20m20 20h-20m40 0v20m0-20h20m-20 20h-20m20 0h20m-40 0h-20m80-20h20v20h-20m0-20v20m0-20h-20m20 20h-20m0-20v20m-60-40v20m0-20h-20m20 20v20m0-20h-20m20 20h-20v-20m0-20v20m0-20v-20h-20m20 20h-20m20 20h-20v-20m0-20v20m0-20v-20m-40-60h20"/><path fill="#D9D9D9" d="M139 60h20v20h-20V60Zm40-20h20v20h-20V40Zm0 20h20v20h-20V60Zm20-20h20v20h-20V40Zm40 0h20v20h-20V40Zm20 0h20v20h-20V40Zm0 20h20v20h-20V60Zm20 0h20v20h-20V60Zm0 20h20v20h-20V80Zm20 0h20v20h-20V80Zm0 60h20v20h-20v-20Zm0-20h20v20h-20v-20Zm0 40h20v20h-20v-20Zm0 40h20v20h-20v-20Zm0-100h20v20h-20v-20Zm0 80h20v20h-20v-20Zm20-40h20v20h-20v-20Zm0-20h20v20h-20v-20Zm0 40h20v20h-20v-20Zm0-60h20v20h-20v-20Zm0 80h20v20h-20v-20Zm-40-20h20v20h-20v-20Zm0-20h20v20h-20v-20Zm0 40h20v20h-20v-20Zm0 40h20v20h-20v-20Zm-20 20h20v20h-20v-20Zm60-40h20v20h-20v-20Zm-20 20h20v20h-20v-20Zm-20 20h20v20h-20v-20Zm-120-20h20v20h-20v-20Zm40 20h20v20h-20v-20Zm-40-60h20v20h-20v-20Zm-20 0h20v20h-20v-20Zm20-20h20v20h-20v-20Zm-20-20h20v20h-20v-20Zm0-20h20v20h-20v-20Zm20 0h20v20h-20v-20Zm-20-20h20v20h-20v-20Zm20 0h20v20h-20v-20Zm-20-20h20v20h-20V80Zm20 60h20v20h-20v-20Zm0-60h20v20h-20V80Zm-40 20h20v20h-20v-20Zm0 60h20v20h-20v-20Zm0-20h20v20h-20v-20Zm0-20h20v20h-20v-20Zm20 40h20v20h-20v-20Zm20 40h20v20h-20v-20Zm-20 0h20v20h-20v-20Zm40 0h20v20h-20v-20Zm0 20h20v20h-20v-20Zm20 0h20v20h-20v-20Zm20 20h20v20h-20v-20Zm20 0h20v20h-20v-20Zm40-40h20v20h-20v-20ZM179 80h20v20h-20V80Zm0 40h20v20h-20v-20Zm0-20h20v20h-20v-20Zm0 40h20v20h-20v-20Zm0 40h20v20h-20v-20Zm0-20h20v20h-20v-20Zm20-80h20v20h-20V80Zm0 20h20v20h-20v-20Zm0 40h20v20h-20v-20Zm0-20h20v20h-20v-20Zm0 40h20v20h-20v-20Zm0 40h20v20h-20v-20Zm0-20h20v20h-20v-20Zm20-80h20v20h-20v-20Zm0 20h20v20h-20v-20Zm0 40h20v20h-20v-20Zm0-20h20v20h-20v-20Zm0 40h20v20h-20v-20Zm0 40h20v20h-20v-20Zm0-20h20v20h-20v-20Zm20-80h20v20h-20v-20Zm0 20h20v20h-20v-20Zm0 40h20v20h-20v-20Zm0-20h20v20h-20v-20Zm0 60h20v20h-20v-20Zm0-20h20v20h-20v-20Zm20-60h20v20h-20v-20Zm0 20h20v20h-20v-20Zm0 40h20v20h-20v-20Zm0 20h20v20h-20v-20Zm0-40h20v20h-20v-20ZM199 60h20v20h-20V60Zm20-20h20v20h-20V40Zm-60 0h20v20h-20V40Zm0 20h20v20h-20V60Z"/><path stroke="#D9D9D9" stroke-width="5" d="M159 60h-20v20m20-20v20m0-20h20m-20 0V40h20m-20 40h-20m20 0v20m0-20h20m-40 0v20m40-60h20m-20 0v20m20-20v20m0-20h20m-20 20h-20m20 0v20m0-20h20m-40 0v20m20 0h-20m20 0v20m0-20h20m-40 0v20m40-60v20m0-20h20m-20 20v20m0-20h20m0-20h20m-20 0v20m20-20v20m0-20h20v20m-20 0h-20m20 0h20m-20 0v20h20m0-20v20m0-20h20v20m-20 0h20m-20 0v20h20m0-20v20m0-20h20v20m-20 0h20m-20 0v20m20-20v20m0-20h20v20m-40 20h20m-20 0v20m0-20v-20m0 20h-20m40 0v20m0-20v-20m0 20h20m-20 20h-20m20 0v20m0-20h20m-40 0v20m0-20h-20m20-40h20m0 0h20m-20 60h-20m20 0v20m0-20h20m-40 0v20m0-20h-20m20 20h20m-20 0v20m0-20h-20m40 0v20m0-20h20m-20 20h-20m20 0h20v-20m-20 20v20h-20m0-20h-20m20 0v20m40-100v20m0-20v-20m0 40v20m0 0v20m-60-40v20m0-20v-20m0 20h-20m20 20v20m0-20h-20m20-40h-20m20 60v20m0-20h-20m20 20v20m0-20h-20m40 20h-20m20 0v20h-20m0-20h-20m20 0v20m-20-20v20m0-20h-20m20 0v-20m20 40h-20m0 0h-20m-80-40h20m-20 0v20h20m-20-20v-20m0 20h-20v-20m40 20v20m0-20v-20m0 20h20m-20 20h20m0 0h20m-20 0v20h20m-20-20v-20m20 20v20m0-20v-20m0 20h20m-20 20h20m-80-80h20m-20 0v20m0-20h-20m20 0v-20m20 20v20m0-20v-20m0 20h20m-20 20h-20m20 0h20m-40 0h-20m0-20v20m0-20v-20m0 20h-20v-20m40 0h20m-20 0v-20m0 20h-20m40 0v-20m0 20h20m-60-20h20m-20 0v20m0-20v-20m0 20h-20m40 0v-20m0 20h20m-40 20h-20m20-40h20m-20 0v-20m0 20h-20m40 0h20m-20 0v-20m20 20v20m0-20v-20m0 20h20m-20 20h20m-60-40h20m-20 0h-20v20m40-20h20m0 0h20m-80 20v20m0 20v-20m80 60v20m0-20v-20m0 20h20m-20 20h20m0 0v-20m0 20h20m0 20v20m0-20v-20m-40-120v20m0-20h20m-20 20v20m0-20h20m-20 20v20m0-20h20m-20 20v20m0-20h20m-20 20h20m0-100v20m0 0v20m0-20h20v20m-20 0v20m0-20h20m-20 20v20m0-20h20m-20 20v20m0-20h20m-20 20v20m0-20h20m-20 20h20m0-80v20m0-20h20v20m-20 0v20m0-20h20m-20 20v20m0-20h20m-20 20v20m0-20h20m-20 20v20m0-20h20m-20 20h20m0-80v20m0 0v20m0 0v20m0 0v20"/></svg>

<svg width="437" height="483" viewBox="0 0 437 483" fill="none" xmlns="http://www.w3.org/2000/svg">
<path d="M239 60H259V80H239V60Z" fill="#EDEDED"/>
<path d="M239 80H259V100H239V80Z" fill="#EDEDED"/>
<path d="M259 100H279V120H259V100Z" fill="#EDEDED"/>
<path d="M259 80H279V100H259V80Z" fill="#EDEDED"/>
<path d="M279 100H299V120H279V100Z" fill="#EDEDED"/>
<path d="M279 120H299V140H279V120Z" fill="#EDEDED"/>
<path d="M259 120H279V140H259V120Z" fill="#EDEDED"/>
<path d="M239 100H259V120H239V100Z" fill="#EDEDED"/>
<path d="M219 80H239V100H219V80Z" fill="#EDEDED"/>
<path d="M219 60H239V80H219V60Z" fill="#EDEDED"/>
<path d="M239 60H259V80M239 60V80M239 60H219V80M259 80H239M259 80V100M259 80H279V100M239 80V100M239 80H219M259 100H239M259 100H279M259 100V120M239 100V120H259M239 100H219V80M279 100V120M279 100H299V120M279 120H259M279 120H299M279 120V140M259 120V140H279M299 120V140H279" stroke="#EDEDED" stroke-width="5"/>
<path d="M119 80H139V100H119V80Z" fill="#949494"/>
<path d="M99 100H119V120H99V100Z" fill="#949494"/>
<path d="M99 160H119V180H99V160Z" fill="#949494"/>
<path d="M99 180H119V200H99V180Z" fill="#949494"/>
<path d="M99 200H119V220H99V200Z" fill="#949494"/>
<path d="M199 260H219V280H199V260Z" fill="#949494"/>
<path d="M259 260H279V280H259V260Z" fill="#949494"/>
<path d="M239 260H259V280H239V260Z" fill="#949494"/>
<path d="M219 260H239V280H219V260Z" fill="#949494"/>
<path d="M179 240H199V260H179V240Z" fill="#949494"/>
<path d="M179 260H199V280H179V260Z" fill="#949494"/>
<path d="M159 240H179V260H159V240Z" fill="#949494"/>
<path d="M159 260H179V280H159V260Z" fill="#949494"/>
<path d="M139 220H159V240H139V220Z" fill="#949494"/>
<path d="M139 240H159V260H139V240Z" fill="#949494"/>
<path d="M119 200H139V220H119V200Z" fill="#949494"/>
<path d="M119 220H139V240H119V220Z" fill="#949494"/>
<path d="M119 180H139V200H119V180Z" fill="#949494"/>
<path d="M99 140H119V160H99V140Z" fill="#949494"/>
<path d="M99 120H119V140H99V120Z" fill="#949494"/>
<path d="M119 100H139V80H119V100ZM119 100H99V120M119 100V120M119 120H99M119 120V140M99 120V140M99 160H119M99 160V180M99 160V140M119 160V180M119 160V140M119 180H99M119 180V200M119 180H139V200M99 180V200M119 200H99M119 200V220M119 200H139M99 200V220H119M119 220H139M119 220V240H139M199 260H219M199 260V280M199 260V240H179M199 260H179M219 260V280M219 260H239M219 280H199M219 280H239M199 280H179M259 260H279V280H259M259 260V280M259 260H239M259 280H239M239 260V280M179 240V260M179 240H159M179 260V280M179 260H159M179 280H159V260M159 240V260M159 240V220H139M159 240H139M159 260H139V240M139 220V240M139 220V200M99 140H119" stroke="#949494" stroke-width="5"/>
<path d="M139 60H159V80H139V60Z" fill="#D9D9D9"/>
<path d="M179 40H199V60H179V40Z" fill="#D9D9D9"/>
<path d="M179 60H199V80H179V60Z" fill="#D9D9D9"/>
<path d="M199 40H219V60H199V40Z" fill="#D9D9D9"/>
<path d="M239 40H259V60H239V40Z" fill="#D9D9D9"/>
<path d="M259 40H279V60H259V40Z" fill="#D9D9D9"/>
<path d="M259 60H279V80H259V60Z" fill="#D9D9D9"/>
<path d="M279 60H299V80H279V60Z" fill="#D9D9D9"/>
<path d="M279 80H299V100H279V80Z" fill="#D9D9D9"/>
<path d="M299 80H319V100H299V80Z" fill="#D9D9D9"/>
<path d="M299 140H319V160H299V140Z" fill="#D9D9D9"/>
<path d="M299 120H319V140H299V120Z" fill="#D9D9D9"/>
<path d="M299 160H319V180H299V160Z" fill="#D9D9D9"/>
<path d="M299 200H319V220H299V200Z" fill="#D9D9D9"/>
<path d="M299 100H319V120H299V100Z" fill="#D9D9D9"/>
<path d="M299 180H319V200H299V180Z" fill="#D9D9D9"/>
<path d="M319 140H339V160H319V140Z" fill="#D9D9D9"/>
<path d="M319 120H339V140H319V120Z" fill="#D9D9D9"/>
<path d="M319 160H339V180H319V160Z" fill="#D9D9D9"/>
<path d="M319 100H339V120H319V100Z" fill="#D9D9D9"/>
<path d="M319 180H339V200H319V180Z" fill="#D9D9D9"/>
<path d="M279 160H299V180H279V160Z" fill="#D9D9D9"/>
<path d="M279 140H299V160H279V140Z" fill="#D9D9D9"/>
<path d="M279 180H299V200H279V180Z" fill="#D9D9D9"/>
<path d="M279 220H299V240H279V220Z" fill="#D9D9D9"/>
<path d="M259 240H279V260H259V240Z" fill="#D9D9D9"/>
<path d="M319 200H339V220H319V200Z" fill="#D9D9D9"/>
<path d="M299 220H319V240H299V220Z" fill="#D9D9D9"/>
<path d="M279 240H299V260H279V240Z" fill="#D9D9D9"/>
<path d="M159 220H179V240H159V220Z" fill="#D9D9D9"/>
<path d="M199 240H219V260H199V240Z" fill="#D9D9D9"/>
<path d="M159 180H179V200H159V180Z" fill="#D9D9D9"/>
<path d="M139 180H159V200H139V180Z" fill="#D9D9D9"/>
<path d="M159 160H179V180H159V160Z" fill="#D9D9D9"/>
<path d="M139 140H159V160H139V140Z" fill="#D9D9D9"/>
<path d="M139 120H159V140H139V120Z" fill="#D9D9D9"/>
<path d="M159 120H179V140H159V120Z" fill="#D9D9D9"/>
<path d="M139 100H159V120H139V100Z" fill="#D9D9D9"/>
<path d="M159 100H179V120H159V100Z" fill="#D9D9D9"/>
<path d="M139 80H159V100H139V80Z" fill="#D9D9D9"/>
<path d="M159 140H179V160H159V140Z" fill="#D9D9D9"/>
<path d="M159 80H179V100H159V80Z" fill="#D9D9D9"/>
<path d="M119 100H139V120H119V100Z" fill="#D9D9D9"/>
<path d="M119 160H139V180H119V160Z" fill="#D9D9D9"/>
<path d="M119 140H139V160H119V140Z" fill="#D9D9D9"/>
<path d="M119 120H139V140H119V120Z" fill="#D9D9D9"/>
<path d="M139 160H159V180H139V160Z" fill="#D9D9D9"/>
<path d="M159 200H179V220H159V200Z" fill="#D9D9D9"/>
<path d="M139 200H159V220H139V200Z" fill="#D9D9D9"/>
<path d="M179 200H199V220H179V200Z" fill="#D9D9D9"/>
<path d="M179 220H199V240H179V220Z" fill="#D9D9D9"/>
<path d="M199 220H219V240H199V220Z" fill="#D9D9D9"/>
<path d="M219 240H239V260H219V240Z" fill="#D9D9D9"/>
<path d="M239 240H259V260H239V240Z" fill="#D9D9D9"/>
<path d="M279 200H299V220H279V200Z" fill="#D9D9D9"/>
<path d="M179 80H199V100H179V80Z" fill="#D9D9D9"/>
<path d="M179 120H199V140H179V120Z" fill="#D9D9D9"/>
<path d="M179 100H199V120H179V100Z" fill="#D9D9D9"/>
<path d="M179 140H199V160H179V140Z" fill="#D9D9D9"/>
<path d="M179 180H199V200H179V180Z" fill="#D9D9D9"/>
<path d="M179 160H199V180H179V160Z" fill="#D9D9D9"/>
<path d="M199 80H219V100H199V80Z" fill="#D9D9D9"/>
<path d="M199 100H219V120H199V100Z" fill="#D9D9D9"/>
<path d="M199 140H219V160H199V140Z" fill="#D9D9D9"/>
<path d="M199 120H219V140H199V120Z" fill="#D9D9D9"/>
<path d="M199 160H219V180H199V160Z" fill="#D9D9D9"/>
<path d="M199 200H219V220H199V200Z" fill="#D9D9D9"/>
<path d="M199 180H219V200H199V180Z" fill="#D9D9D9"/>
<path d="M219 100H239V120H219V100Z" fill="#D9D9D9"/>
<path d="M219 120H239V140H219V120Z" fill="#D9D9D9"/>
<path d="M219 160H239V180H219V160Z" fill="#D9D9D9"/>
<path d="M219 140H239V160H219V140Z" fill="#D9D9D9"/>
<path d="M219 180H239V200H219V180Z" fill="#D9D9D9"/>
<path d="M219 220H239V240H219V220Z" fill="#D9D9D9"/>
<path d="M219 200H239V220H219V200Z" fill="#D9D9D9"/>
<path d="M239 120H259V140H239V120Z" fill="#D9D9D9"/>
<path d="M239 140H259V160H239V140Z" fill="#D9D9D9"/>
<path d="M239 180H259V200H239V180Z" fill="#D9D9D9"/>
<path d="M239 160H259V180H239V160Z" fill="#D9D9D9"/>
<path d="M239 220H259V240H239V220Z" fill="#D9D9D9"/>
<path d="M239 200H259V220H239V200Z" fill="#D9D9D9"/>
<path d="M259 140H279V160H259V140Z" fill="#D9D9D9"/>
<path d="M259 160H279V180H259V160Z" fill="#D9D9D9"/>
<path d="M259 200H279V220H259V200Z" fill="#D9D9D9"/>
<path d="M259 220H279V240H259V220Z" fill="#D9D9D9"/>
<path d="M259 180H279V200H259V180Z" fill="#D9D9D9"/>
<path d="M199 60H219V80H199V60Z" fill="#D9D9D9"/>
<path d="M219 40H239V60H219V40Z" fill="#D9D9D9"/>
<path d="M159 40H179V60H159V40Z" fill="#D9D9D9"/>
<path d="M159 60H179V80H159V60Z" fill="#D9D9D9"/>
<path d="M159 60H139V80M159 60V80M159 60H179M159 60V40H179M159 80H139M159 80V100M159 80H179M139 80V100M179 40H199M179 40V60M199 40V60M199 40H219M199 60H179M199 60V80M199 60H219M179 60V80M199 80H179M199 80V100M199 80H219M179 80V100M219 40V60M219 40H239M219 60V80M219 60H239M239 40H259M239 40V60M259 40V60M259 40H279V60M259 60H239M259 60H279M259 60V80H279M279 60V80M279 60H299V80M279 80H299M279 80V100H299M299 80V100M299 80H319V100M299 100H319M299 100V120M319 100V120M319 100H339V120M299 140H319M299 140V160M299 140V120M299 140H279M319 140V160M319 140V120M319 140H339M319 160H299M319 160V180M319 160H339M299 160V180M299 160H279M299 120H319M319 120H339M319 180H299M319 180V200M319 180H339M299 180V200M299 180H279M299 200H319M299 200V220M299 200H279M319 200V220M319 200H339M319 220H299M319 220H339V200M319 220V240H299M299 220H279M299 220V240M339 140V160M339 140V120M339 160V180M339 180V200M279 160V180M279 160V140M279 160H259M279 180V200M279 180H259M279 140H259M279 200V220M279 200H259M279 220V240M279 220H259M299 240H279M299 240V260H279M279 240H259M279 240V260M259 240V260M259 240H239M259 240V220M279 260H259M259 260H239M159 220H179M159 220V240H179M159 220V200M159 220H139V200M179 220V240M179 220V200M179 220H199M179 240H199M199 240H219M199 240V260H219M199 240V220M219 240V260M219 240V220M219 240H239M219 260H239M159 180H179M159 180V200M159 180H139M159 180V160M179 180V200M179 180V160M179 180H199M179 200H159M179 200H199M159 200H139M139 180V200M139 180V160M139 180H119V160M159 160H179M159 160V140M159 160H139M179 160V140M179 160H199M139 140H159M139 140V160M139 140V120M139 140H119M159 140V120M159 140H179M139 160H119M139 120H159M139 120V100M139 120H119M159 120H179M159 120V100M179 120V140M179 120V100M179 120H199M179 140H199M139 100H159M139 100H119V120M159 100H179M179 100H199M119 120V140M119 160V140M199 200V220M199 200V180M199 200H219M199 220H219M219 220V200M219 220H239M239 240V260M239 240V220M199 100V120M199 100H219M199 120V140M199 120H219M199 140V160M199 140H219M199 160V180M199 160H219M199 180H219M219 80V100M219 100V120M219 100H239V120M219 120V140M219 120H239M219 140V160M219 140H239M219 160V180M219 160H239M219 180V200M219 180H239M219 200H239M239 120V140M239 120H259V140M239 140V160M239 140H259M239 160V180M239 160H259M239 180V200M239 180H259M239 200V220M239 200H259M239 220H259M259 140V160M259 160V180M259 180V200M259 200V220" stroke="#D9D9D9" stroke-width="5"/>
</svg>
